/* XPM */
static char *result[] = {
/* columns rows colors chars-per-pixel */
"64 64 43 1 ",
"  c #A49C88",
". c #989078",
"X c #8C8068",
"o c #948C7C",
"O c #7C745C",
"+ c #80786C",
"@ c #78745C",
"# c #6C6450",
"$ c #544C30",
"% c #605438",
"& c #C0B4AC",
"* c #8C3828",
"= c #602414",
"- c #A44430",
"; c #605C48",
": c #70684C",
"> c #686044",
", c #B4A89C",
"< c #4C4424",
"1 c #443C1C",
"2 c #2C3024",
"3 c #A09888",
"4 c #342410",
"5 c #6C645C",
"6 c #D0C4BC",
"7 c #B8A8A0",
"8 c #443838",
"9 c #343428",
"0 c #785C5C",
"q c #88706C",
"w c #403C30",
"e c #F0E8E8",
"r c #D4C8C4",
"t c #443418",
"y c #A4945C",
"u c #683008",
"i c #68504C",
"p c #282820",
"a c #8C8074",
"s c #484838",
"d c #5C544C",
"f c #545040",
"g c #484440",
/* pixels */
"  .......   .XXXX.ooOo+++++++o+@#@@#ooooooO.oX@XX.. .XOXXO      ",
" $$$$$%$$OO&@XX@XX.&O***=*--=#+;***==-***&OX.o.XX..&.:$$$$%$>>O&",
" $>>>>>>$O$ @@XO@@X,O****-***#+%=***-*--*,O@XX.X+++ .>%$$$$$$$$ ",
" $>%OO>>$O$&@@O@XXX&O=*=##%**#;%**$$#%***&OoX:@@@@O&:>>$%%O>%$$&",
" $>$:.>:$O$ X@XXXXX,O**=;+%==##$==;<#+***,O.XXX@XXO O%:::$O.:$$ ",
" %>1O:$>$:$&@@XXXXX,O***#;<*=;#%**;<<#***,O..XXXX@@&O>O::$$O:$$&",
" >:<O$:>$:$&XX..XXX.O**=#==*=;#%****<#***.Oo.....XO&O>:::$$O%$$&",
" >><OO ..O$&OXX....,O**-##o++##;@o@@@%*=*,Oo.o.XXX@&O:X XXX>:$$&",
" >>$$$$$$1$ X.oo... O***=***===-***==*=** Ooo .XXX@ %$$$$$$$:$$ ",
" >::$$$$$1$ .o o..X,O*******==*******===*,Oo..XXOXO %2$$$$$$O$$ ",
" >::      $ .. o.XX,O*-*oooooo=*@#@@@@*-*,Oo...XX@X %%XOXXXXO$$ ",
" >>$>,OO ,$ X. oo.. O***%3##o3**o#oooo;** O...oX@@X %% O    :$$ ",
" >>$%O%%$O$ X. oo.. O***$#$-<#**#<-4<#;** O  ..@@XX %%O$$4$O:$$ ",
"&+>$%O$$$.$ XXX.o.. O**=$#<-<+@#o<**<#;=- O ..XXXX@ XO $$:$O:$$ ",
"&5>$%O%.$ $&@X  ...,o***$#$*<o@oo$--<#;-*,oXXXXXX@@&X  %::$O:$$&",
"&5>$%O%.$%$&o,, ooo,O***$#$=<$$$$;**<#;==,Oo...oXXX&%%%:::$O:$$&",
" 5O$%O$.O:$& ,  .oo6O***$#<*=*==****<#;=*6O o.oX.XX&:::O:$$O:$$&",
",5O$%OOOOO$  ,  ooo&X***$##**-****=*<##**&X oo....o %::::$$OO$$ ",
",5O$%.  6 $,     oooO***$+oo7o=o  o +##=*,>  o...oo,O && &.OO$$,",
",+>$$$$$$.$,o    o &O********+*o#*****=**,O  ..XX..,O O$$$$$O$$,",
" 5>O$$$89 $,  ,,, o,O**===**=o*o0-***-*-*oO   ...oo,X q$$$$$.$$,",
" :OX&&& $.$  ,,,,, &O***   **+=o@**   o*=&O    oo o : XX.&&& $$ ",
" :O$$6.O$ $&o ,,, o,O***<7+**o=@@**%77#**,O,       &:XX $>66O$$&",
" :O$$.%O$ $&  ,,  ,,O=**<+$**o=o@**<###**&O  ,     &: XX$$OOO$$&",
"&+%$$ OOw $& ,,,,  .O=--<o#==o*o@**<@##==,O,   ,   &O XX$$XOO$$&",
"&5>$$$$O$ $  ,,,,  ,O-**<<<**o*o@**<<<#**,O.  ,.o   : XO$$$$O$$ ",
"&5OO8$$.8 $,o &, ,  O***9<<-=o*o@**<<<@**.O       ,,: XXX$$$X$$,",
" 5X.XXXX..$, ,&    ,O*-=*****+*#@***==***,O,      ,,.OXXXXXX.%$,",
",5OOO6eee $, ,&  . ,O*=*#7rrro=0o77rrr#** O       ,,:q 66eeeO%$,",
",5OO$ $$$9$ ,&   .o O***<o<<<2*<<<<<3o@**,O,  ,, ,, .$$$$$, X%$ ",
",+XO$O2$$t$&, , .o  O*=*<#*=*=*=*=*=<@@**,O&, ,,,,,& $$$$$$XX%$&",
" 5XO$OO  e$& .o  ,, O-=-<#*=or* 7o*=<oo** O&&,,  ,,&y&6 7$$  %$&",
" :OO$::7%e$&.X,,,,,,o***<;-=$r* r$**<@o** O&,,,   ,&%&e%7$$X >$&",
" 5OO<:% % $ Xo, , ,,O***1;**$o*@@$*-<#+** O&&&,,  , %XX% $$O.>$ ",
"&5OO<:.XXX$,X,,,, ,6O***1;=*-===**u-<@@*=,o&,&&  ,,,XX%XXO$XX%$,",
"&5OOw.&e. %&,, &,  &X==*9+ r+oo@3777o@#--,O, &&,,, & X,666 XO$%&",
"&5O5$$$$$8%&,,,&,,,,>*************-*****=6O,,,,,  o&;$$$$$$$5%%&",
" 5OX555555%&,,,,,&,,O****==****=*****====&X,,  ,,, &555555555i%&",
",5O., ,, &% ,,, &&,,:**+3o33o #o7777 7o**,>,,,,, ,, O 6666&6 %% ",
",5O$  ,,,,8,,, .&&& :==<oo3333#@o37  7o=*,O ,,&,,&,,OX ,6&&6 $8,",
",+O$ >$9tO2,,&  &&& O**<o%<24##@;;;p;@o**,: ,,,&,&&,OX:::2:X $2,",
" 5O$ $OOtO9, ,, ,&&oO**<o<=-4##@;***p@o-* :     ,&,,OX:O:22X $9,",
" :O$ $OX$Ow oo.o,,&&O********+*o#*****=** O @  X, o OX:O t2X $w ",
" XO$ $OO$:9    ,&&,,:**===**=o*o0-***-*-*oO.@, o,,, %X:O,$2X $9 ",
" XOO %OX%O8.,, .X,,&O***   **+=o@**   o*=&Oo    ,,,.$XOO O:X %8.",
" X,      a>X,,&. .&,O***<7+**o=@@**%77#**,:o  ,,,, X     ..:,O>X",
"X>XO.XX.a::>&& ooX,,:=**<+$**o=o@**<###**&O X     .>O:aOOXa:XX:>",
"..,..aaX.a,&,,.,oO .:=--<o#==o*o@**<@##==,O o   o .%oXXXXOXX.oo.",
".X,.XX:X3X, o.X X.o,O-**<<<**o*o@**<<<#**,: ..o   ...XXO:OX.....",
"XXX.XXX. o,,,@  .o  O***9<<-=o*o@**<<<@**.:oo.o.,  .XXXOXO.. .X.",
"X@@.X+3Xaa..o&&o   ,O*-=*****+*#@***==***,O ooo. ,  .XX:X::O  ..",
"XXO3X+3.3Xooo &o   ,O*=*#7rrro=0o77rrr#** Oooooo  oooOXOXOOOoooX",
"X.X.X.X..a o ,&     O***<o<<<2*<<<<<3o@**,Ooo. o....o+XXXXXO..oo",
" .X+X.X, . .o ,.... :%%sO:OO***-=*=::::::,O .  o. XX.+3..3.XXX.o",
"...OOOOOo.o . ,..XO ddd%ws$w-**=***wddddd Ooo    o...+OOOO.X...o",
"  &&666666  &&&666& @++fOO%%***=*-*%>%%%% :6666&&6&&     &.& &&6",
"o  & @o&&& o  &  6     & O%%***==**%>.& &  O 6   &.@+   & .&XX.X",
"oooo #@o&  oXXX55..+ %%% O%%**=****O> www +5@@....1@d+.  odXXd+ ",
"@@oOo@oo ooXX  d@5@.O9<X,XXOO@$%#:OOO >%wO555%@@.O%w%..5 @>555@ ",
"@@oOO@@ooX@@ & @@ 5.1s>s,  .,X%OO .r rO::>.X+s>@@O%sd+X5@ddd5XX ",
"O@OOO%do&o+d. Od & %@@@>:::>.X%%% X.::XO ,+.X5d@@ddd+@+@XoXd#d.g",
"@OOoo@>XoX+oo.+oXX.@#@Xf::f>.X%%% .ff:OOX@ o@ds@&d>.+X@XX.oX@#@f",
"@d@@5+ooooo& ++&. +o5. :::f>.X:::  :::O%Oo  @@ooooooo&oXo.@XX@@f",
"ws%%%%dd>%>s>>wwssww%:o::::+oX:::& :::& O:ddd%ws%s%wwsssddddsddf"
};
