/* XPM */
static char * KeyCard_xpm[] = {
"512 64 4 1",
" 	c None",
".	c #333333",
"+	c #555555",
"@	c #888888",
"                                                                                                                                                                                                                                                                                                                                                                                                                                                                                                                                ",
"                                                                                                                                                                                                                                                                                                                                                                                                                                                                                                                                ",
"                                                                                                                                                                                                                                                                                                                                                                                                                                                                                                                                ",
"                                                                                                                                                                                                                                                                                                                                                                                                                                                                                                                                ",
"                                                                                                                                                                                                                                                                                                                                                                                                                                                                                                                                ",
"                                                                                                                                                                                                                                                                                                                                                                                                                                                                                                                                ",
"                                                                                                                                                                                                                                                                                                                                                                                                                                                                                                                                ",
"                                                                                                                                                                                                                                                                                                                                                                                                                                                                                                                                ",
"                                                                                                                                                                                                                                                                                                                                                                                                                                                                                                                                ",
"                                                                                                                                                                                                                                                                                                                                                                                                                                                                                                                                ",
"                                                                                                                                                                                                                                                                                                                                                                                                                                                                                                                                ",
"                                                                                                                                                                                                                                                                                                                                                                                                                                                                                                                                ",
"                                                                                                                                                                                                                                                                                                                                                                                                                                                                                                                                ",
"                                                                                                                                                                                                                                                                                                                                                                                                                                                                                                                                ",
"                                                                                                                                                                                                                                                                                                                                                                                                                                                                                                                                ",
"                                                                                                                                                                                                                                                                                                                                                                                                                                                                                                                                ",
"                                                                                                                                                                                                                                                                                                                                                                                                                                                                                                                                ",
"                                                                                                                                                                                                                                                                                                                                                                                                                                                                                                                                ",
"                                                                                                                                                                                                                                                                                                                                                                                                                                                                                                                                ",
"                                                                                                                                                                                                                                                                                                                                                                                                                                                                                                                                ",
"                                                                                                                                                                                                                                                                                                                                                                                                                                                                                                                                ",
"                                                                                                                                                                                                                                                                                                                                                                                                                                                                                                                                ",
"                                                                                                                                                                                                                                                                                                                                                                                                                                                                                                                                ",
"                                                                                                                                                                                                                                                                                                                                                                                                                                                                                                                                ",
"                                                                                                                                                                                                                                                                                                                                                                                                                                                                                                                                ",
"                                                                                                                                                                                                                                                                                                                                                                                                                                                                                                                                ",
"                                                                                                                                                                                                                                                                                                                                                                                                                                                                                                                                ",
"                                                                                                                                                                                                                                                                                                                                                                                                                                                                                                                                ",
"                                                                                                                                                                                                                                                                                                                                                                                                                                                                                                                                ",
"                                                                                                                                                                                                                                                                                                                                                                                                                                                                                                                                ",
"                                                                                                                                                                                                                                                                                                                                                                                                                                                                                                                                ",
"                                                                                                                                                                                                                                                                                                ...                                                                                                                            ..                                                                                               ",
"                             ...                                                                                                                               ..                                                               ..                                                             .+++.                                                            ..                                                             ..                                                             ..                                ",
"                            .+++.                                                             ..                                                               ..                                                              .+.                                                            .+++@@.                                                          .+.                                                             ..                                                             .+.                               ",
"                           .@@+++.                                                            .+.                                                              ..                                                              .+@.                                                          .+++@@@+.                                                         .+@.                                                            ..                                                            .@+.                               ",
"                          .+@@@+++.                                                          .@+.                                                              ..                                                             .+@@.                                                         .+++@@@+++.                                                       .+@@.                                                            ..                                                            .@@+.                              ",
"                         .+++@@@+++.                                                         .@@+.                                                             ..                                                             .+@+.                                                        .+++@@@++++.                                                       .+@+.                                                            ..                                                            .+@+.                              ",
"                         .++++@@@+++.                                                        .+@+.                                                             ..                                                            .+@@+.                                                       .+++@@@+++++.                                                      .+@@+.                                                            ..                                                            .+@@+.                             ",
"                         .+++++@@@+++.                                                       .+@@+.                                                            ..                                                            .+@++.                                                      .+++@@@+++++.                                                       .+@++.                                                            ..                                                            .++@+.                             ",
"                          .+++++@@@+++.                                                      .++@+.                                                            ..                                                            .@@+.                                                       .++@@@+++++.                                                        .@@+.                                                             ..                                                             .+@@.                             ",
"                           .+++++@@@++.                                                       .+@@.                                                            ..                                                            .@++.                                                       .+@@@+++++.                                                         .@++.                                                             ..                                                             .++@.                             ",
"                            .+++++@@@+.                                                       .++@.                                                            ..                                                             .+.                                                         .@@+++++.                                                           .+.                                                              ..                                                              .+.                              ",
"                             .+++++@@.                                                         .+.                                                             ..                                                             .+.                                                          .+++++.                                                            .+.                                                              ..                                                              .+.                              ",
"                              .+++++.                                                          .+.                                                             ..                                                             .+.                                                           .+++.                                                             .+.                                                              ..                                                              .+.                              ",
"                               .+++.                                                           .+.                                                             ..                                                              .                                                             ...                                                               .                                                               ..                                                               .                               ",
"                                ...                                                             .                                                              ..                                                                                                                                                                                                                                                                                                                                                               ",
"                                                                                                                                                                                                                                                                                                                                                                                                                                                                                                                                ",
"                                                                                                                                                                                                                                                                                                                                                                                                                                                                                                                                ",
"                                                                                                                                                                                                                                                                                                                                                                                                                                                                                                                                ",
"                                                                                                                                                                                                                                                                                                                                                                                                                                                                                                                                ",
"                                                                                                                                                                                                                                                                                                                                                                                                                                                                                                                                ",
"                                                                                                                                                                                                                                                                                                                                                                                                                                                                                                                                ",
"                                                                                                                                                                                                                                                                                                                                                                                                                                                                                                                                ",
"                                                                                                                                                                                                                                                                                                                                                                                                                                                                                                                                ",
"                                                                                                                                                                                                                                                                                                                                                                                                                                                                                                                                ",
"                                                                                                                                                                                                                                                                                                                                                                                                                                                                                                                                ",
"                                                                                                                                                                                                                                                                                                                                                                                                                                                                                                                                ",
"                                                                                                                                                                                                                                                                                                                                                                                                                                                                                                                                ",
"                                                                                                                                                                                                                                                                                                                                                                                                                                                                                                                                ",
"                                                                                                                                                                                                                                                                                                                                                                                                                                                                                                                                ",
"                                                                                                                                                                                                                                                                                                                                                                                                                                                                                                                                ",
"                                                                                                                                                                                                                                                                                                                                                                                                                                                                                                                                ",
"                                                                                                                                                                                                                                                                                                                                                                                                                                                                                                                                ",
"                                                                                                                                                                                                                                                                                                                                                                                                                                                                                                                                "};
