/* XPM */
static char *result[] = {
/* columns rows colors chars-per-pixel */
"64 64 47 1 ",
"  c #647474",
". c #304040",
"X c #686044",
"o c #80786C",
"O c #806838",
"+ c #5C544C",
"@ c #8C8068",
"# c #544C30",
"$ c #947C48",
"% c #C09050",
"& c #C89C5C",
"* c #7C745C",
"= c #989078",
"- c #4C5C60",
"; c #403C30",
": c #98807C",
"> c #342410",
", c #342C28",
"< c #28200C",
"1 c #948C7C",
"2 c #788488",
"3 c #A49C88",
"4 c #CCA86C",
"5 c #B4A89C",
"6 c #D0B484",
"7 c #504024",
"8 c #6C5428",
"9 c #887040",
"0 c #683810",
"q c #786030",
"w c #945C28",
"e c #A87034",
"r c #BC8440",
"t c #683008",
"y c #402004",
"u c #945010",
"i c #443418",
"p c #B46810",
"a c #8C4000",
"s c #A45C10",
"d c #C06850",
"f c #C47010",
"g c #D0903C",
"h c #DCAC6C",
"j c #484440",
"k c #C0B4AC",
"l c #243434",
/* pixels */
" ..XXooXO+Oo@#$O%X&*X$O%O#o#O=X -#;#:#;*o#O.@+>,<#+Oo@#$O%X&*X$O",
"  oo 1oo**@O*$o@@Xooo& @o +oX#@##X*o$: &**+O$*@XX +Oo@#$O%X&*X$O",
"ooo o2=@*:o*o@1**+o o@ @@o-   - *ooo$**:@oo$:ooX*o*@O*$o@@Xooo& ",
"3ooo121@@o  ooo@ooo o1o*o+ - - -o4 o** *5**$=**o++:o*o@1**+o o@ ",
"4 $oo@o**-+-.o--+ ..+***@$XXX+-oX@&@*o**@**$o@+X#$o  ooo@ooo o1o",
"4$6&61*ooo* o+.X..X-*+$&O@O.+*o*o7o1*+o@@$o@.*O+8@-+-.o--+ ..+**",
"115=o3@oooo*+ooo*o*  @%9O*%#+*o*++o *+*@.o**$*:oo*o* o+.X..X-*+$",
"oo oo o@oooooooo*ooo@@=@*@&@OX*@*o*oo@*o*o$%**@XO@oo*+ooo*o*  @%",
"&$@@&:o55@&&@oo*+@*$&@*@%$$@@+*&@**@@@oOooo***o* $ooooooo*ooo@@=",
"&644:1113&4@&=o*@*%%O*o*@=O%OO**@**=@@o**@@@OO*OO=@&&@oo*+@*$&@*",
"4&64@:oo:=4:&=@@+Oo&%%oO@@@=&@*O@@@*@*@@:::1o***.@&4@&=o*@*%%O*o",
"*o*oX*;0qqqqq=o@ *@o@&*q*$&=@*@*+OXXw80O:@:***O*#$=4:&=@@+Oo&%%o",
"O#08#0#08er8e8800000##t00087#y#08#$.##q##@OoXX**#;qqqq=o@ *@o@&*",
"e90ww0u0#$%q#0#000t00tty0i700yii#q#00##8t8XO*;#oX##pr#88#i;7#qe8",
"e#w#Oqe8wqw&w00tt0000008a0t0t000088w88qq8qwq987q#00w&wqw8eqO#w#e",
"e0peuerewewO%waaaupwa8a0aus88aqww8u88a8O#ww989#8X#0#q%$#0u0ww09%",
"8eeeeeewepswpee8ee80uw0q0aupa8awwuq8d88ww8wqq8#7#88e8re80#0#80#$",
"8epfeeewfepaauaasas8awqaaaw88aq8u0u88uwq0eqO8##00#oXp88p88wawuup",
"pfpegeepeppqwswaeuua0aawqawa08wwqwq0w008uq#q#8#O$0X$wawwaw8u8www",
"sffpegeepeppqwswaeuua0aawqawa08wwqwq0w008uq#q#8#O$*#8ua8uqwuqedr",
"eeeregeeewppuauwpwupeaau8qawua8uw8p88u0aqeww088#8*X#uuuuua88ueud",
"sfpff4%gsfepsfsppppueewsuawupauquuwawupa8wwwwwqywwq#euaeu80aaqsw",
"peeeeer%rffffefwwwwweupspwuu%qeeqg8uaaw0aswwrO8088equusuu8aup%pe",
"pfeggdpeeer%efepswsspeepspsspsud%$uuua8wee$wq0O80w0u8fq8f%pewepp",
"efffeeeewepprefeseef%eef%wpsewdr$%euaaauww#www*##wq8ww8wwqwuqedr",
"feegefgff&eeweeeewf%rfe9rs8esw$urwuusw8e$qw89$X#a8w0aa0wua88ueud",
"efefee%eeeewsspsfufwf4%geua%&wa8ew8fquawqa#q$*08#a8u00pw880aaqsw",
"effffereeepewwpspw%$wp%&wwa8g%ewwwww8u88u8q8O$#8w8d8wuuaa8aup%pe",
"eweeegeeepeppwpfwpee9uwOuswaf%%eqpwes8uaw0w9OX#uq88808wau%pewepp",
"ffeeeeffeepeeewfee%wpusppp8pwe%&9pr9ee9%qqq@#80##uquq8auurpeepee",
"fefeffffeeewpewgesuepwuweau0up&%&%Ow8qe8q8$oq08#08u0wpw8uee&eepe",
"feepeefdeepfepw&%ewpppwuerpwwwww$%@8aw8w8O$#8#008wwuq8ug$ewfeeer",
"pfesfffeeeeeeewg%re8wpwqppawapewfeewuwa00$*;$*0q8ww8wwuq%eefeeeg",
"sppppeeppfeppseeg$%ppeewwepeue8r&9uwuw8a00809*w0#qaqwuqedr$areee",
"psupppepeeeeepfefe%rwwewpwwewpg%$ww8ww0#8wwOqqe#0a8a88ueudwwegre",
"pwewwppffwefffepfee%euuufeewsre98wwewq0t08*8##0#y8a80aaqsws&feee",
"wpeewwfeepfeggg%egr%ruweeee0fr%wwuw8a8$008@Owaqus8p8aup%pee%feee",
"easpwsspeeee%&&4&4%w%uewepew%&e$08wa8wO808Owwsppppf%peweppepfeff",
"wepwwwpepeefeg%&&%g&wwwgeegu$p9wuw8wuqw00u8qepeppefrpeepeeeefwsf",
"apsppwpwpedfrrr$%h4&ruew%&&e8wwuspeqq8ww00awwefewffee&eepeeeeepp",
"pppewweeeweee%der9%&%ewwrOrdewu8eq@@q8w08#u8ewwpesrewfeeerfffeff",
"pswspepwedepeweeeew%&wuu%qpee@0ee098wwuw080ereeeeg%eefeeegffffee",
"psgr$ewperepwepwpweeeepwwew8e$wwO9X9quew8uuqeeeee%rpeg%reeefefep",
"sp%ewfpwpeewuuewwwepupwswuqqwOqw$*990weeeq8Oueegg4edefeegrefefpp",
"efwwpwpwwwpsppeeppuaw88w%eaq$@9=oOq$w8u$waw#eefeefegeeefeeeepspp",
"ppeppeeesewe9ewawuupuqee4%ew9@@@#eawqwuer#8wpepprfegfgffeeefeepu",
"wpwweewweepupw8u8wwweqw%&698e=@@w88q#wwq%q8#0eefepeefeefeffeefps",
"apuawewepwueuew8eqqewwqw$@$@=*8#Oq8##rX#e8we8eefefeffeffwsfffpsp",
"00ea#O7q88#8q8##7#p@##q$@*@*$*w#O8@80&w8#88e88psesppefeeepppppep",
"0008i0;0q7#07#i7y;rO;#%3@*O;O$$qO8O#0O###0;80w7#07#i7y;rO;#%3@*O",
"0qO$@@8*;0q#OqXO*@&%*&$oO@*oo&@3&@$$O9OO;t00080q#OqXO*@&%*&$oO@*",
"O%=@:o*o**o*=o@:**o:@=o&**:*o@@31@3@@=XOX8XOOO*o*=o@:**o:@=o&**:",
"$:@@1o*-ooo* *%1@@o*o*31@o@ooooo oo1$:+oXXXOOXoo* *%1@@o*o*31@o@",
"@+**ooo*o*ooo*41@*o@:*=o=ooo-+oo**+o*O*o.oOXOO*ooo*41@*o@:*=o=oo",
"*  oooO*O=o.o@5:o***o @-*X.#.o .+o++.+o++.#OXO=o.o@5:o***o @-*X.",
"8O.O+oooXo.8$*@@O**#X*.$XXX*+..j##.X*. $XOq$O0o.8$*@@O**#X*.$XXX",
"X o o*o$ oo$:o$=oo**ooo=**oo*XX##.**#OXoX$X*Xqoo$:o$=oo**ooo=**o",
"#@=$o@=$=.O*@=*+O*@oo*o&***$@oooooX*$oo.OOO#O$.O*@=*+O*@oo*o&***",
"93k1*@1$oo+ @oo**ooO.**@:X@@**Xooo$@OXX**@**OOo+ @oo**ooO.**@:X@",
"551o=:&@5:o#-7**.;X **oO3O+7j=+* XO$%8#.+*$rO%:o#-7**.;X **oO3O+",
"X@o$@o&**@X#;7###;X###*@4@887j8X;,,jO#X8##;*9$@X#;7###;XXXq*@4@8",
"o;;XXj**#O ,>,#7#77;+XOjXq##XOj.##O;#,7O##7$weO ,>,#7#7;;**$j***",
";7#;;;X#+X>7;.j#j>;7##X;#XX##+,;.#.l8#e8#OO#XXX>8#.j#j>,7#;;;;X+",
"qXX;;;;;;X;;#78,#7>7;#+#+;+;#+,#.,j.>8+X>X+XqOO#O+78,#7>##;+#;;+"
};
