/* XPM */
static char *result[] = {
/* columns rows colors chars-per-pixel */
"64 64 49 1 ",
"  c #403C30",
". c #6C5428",
"X c #686044",
"o c #786030",
"O c #CCA86C",
"+ c #947C48",
"@ c #80786C",
"# c #647474",
"$ c #544C30",
"% c #7C745C",
"& c #342410",
"* c #443418",
"= c #5C544C",
"- c #504024",
"; c #342C28",
": c #806838",
"> c #304040",
", c #484440",
"< c #C89C5C",
"1 c #B4A89C",
"2 c #8C8068",
"3 c #A4945C",
"4 c #C09050",
"5 c #887040",
"6 c #A87034",
"7 c #243434",
"8 c #945C28",
"9 c #948C7C",
"0 c #989078",
"q c #A49C88",
"w c #98807C",
"e c #4C5C60",
"r c #BC8440",
"t c #945010",
"y c #A45C10",
"u c #C47010",
"i c #B46810",
"p c #B45440",
"a c #D0903C",
"s c #8C4000",
"d c #683810",
"f c #402004",
"g c #683008",
"h c #D0B484",
"j c #DCAC6C",
"k c #D0C098",
"l c #788488",
"z c #C06850",
"x c #142400",
/* pixels */
" .XXoO+@#$ $%X.XX&*$o $$.=  $= $$&-$;.-=:$::oX=X&X=.&>,;>$;=$ = ",
":X@XX<1%<2@X@%@+%..34+5+%=X    $-;&,$,>$.&XXX$::$.6$.7>$> ;=$$XX",
"X+@%@@@#X##@@@X@X%<4+.+44%%%,+%%  -$-$;&;#:68+-$$:-;$ :$$>,:X$$o",
";%9O<0%=%@==%+X%%X@09+40+.2O2%oXXX $$$- $X2+5% $$.X$:,;; X.,-..2",
" 2qwq12@22@@@@=X<2%2:8<<3=:q:@%%#X >%%-e$@w4:r+%=>$.4+:X#%=0,-=:",
"%@%#@#@+1<222XX2@%+0+<0<%2Xw2%%>:@@%%@@2#=@::%%2%%XX:2+@@@X%%22X",
"X9#@@@@20<XX%X%++<220%%+@%%%<@%@@2%:=%02%:>+:$:::>@@+%X@@@@@2+%%",
":@@@eX2qO@%2=-,X@2%@9+#X@@%%0@@@%%@@0+@w+@@oX%X+X@X:$%%>$$XX%@@%",
"tyu6y6iuuyu8i8tp6yuuuuaaipiuua6iyuuyiu6aa6i66644r6u6y66u466u48y.",
"p6ruiuuiyuuuityiiu6uuua6p6uiariia4u66uuuu66686ii866668u44u65rttt",
"86t6y6668iu8p88u6uu6u666yu6uiaup466yuu6auuauu<p6yyiyutu8uO3a688t",
"6ytyu6i8ii6iti666uauuuu8a4866iiyuuuu6u6u6646666888pyi84+8i4<8ty8",
"tiyi668iti86ipi6iu6uuu6u<+6i8yyyuuuu6uuuu6ru66i6i8iu8i665t8:t8tt",
"8y6yya8tit88tpiy6uuuuu66ri8ty6iuiu6668u66a66ui6iytyiiu6uuua6uii.",
"t8isii6it8itii868i66uyii6artyyypiuyuiyu66r6ar66p688u6uu6u666i6tt",
"88tityii4piyisyiyyi6yyy6u66iiuyiiiuuiuu6666uu6p68i666uauuuu88pri",
"ttt8yuptp6uuui4u6iiiiiuuyut6iuuuytyiiu6u6uuuu66iupi6iu6uuu6uiiis",
"stityiiyyiiuuuuuuutyppuyui6tyy66upi6iu66iu6u66666piy6uuuuu66y86i",
"r6t6yu666i6uu<u6uuuu6ru6a6iuuiurru6yiiu6yuuu66u6ii868i66uyiiii88",
"4tttyttiiu6666668u66a66u6uuuiy6rurai6yiiii66ip6666iu6u686uuu6i66",
"6y6yysyiyyiuuiuiyu66r6aruuuuuu6uara6iiytiii6i686uuu6iu6uuuu6ru66",
"iapyy6tyuutuauuiuu6666uuuuuuuuu<4+u66i8p88iiu6uuuu6ru668u66a66p6",
"y6uuu8t66uuuauiiu6u6uuuuiuuu6au4uuyi68i6688u668u66a66uiyu66r6apa",
"oitiitttii6ara6iu66iu6u6uiuuu<6uu46ii6tyi8yypiyu66r6ar6uu6666u4<",
"y8iu8i8tp6yuuuyiiu6yuuu6yiuirriui6au8i8tp6yuuuuaauuuuuyuyiuirriu",
".iyuuityiiu6uui6yiiii66iu6i6t8uiiypuuityiiu6uuua6uuuuiuiu6i6t8ui",
"t.668p88u6uu6u666ia6uyyuiyu8iytiiyu68p88u6uu6u666ia6uyyuiyu8iyti",
".sttiti666uauuuu88iuuiuiiupiii6yuu6u6py8yi6i8iiiyu66r6ar66i86uuu",
"osii6ipi6iu6uuu6uipuuuuu6uuuu6yt6i68iiya4+68i6yiuu6666uu6p.uuuu6",
".siu8tpiy6uuuuu66yi6upuu6u4aauyyt8u88yi468ui8iiiu6u6uuuu66t8u66a",
"sy.itii868i66uyiiiuiuytytstts8ii6y68io886o8.68tiu66iu6u666tyu66r",
"8yi6yisyiyyi6yyy6y8ii8ityyt88oy6tiy+86ar8yiys8tiiu6yuuu66u6uu666",
"t..ystutii6uiyuu8uiyuuyyyyystis68si66686864rpi66yiiii66ip68rr668",
"osi6iytittii6uu66u6iiuua6ist66r68itu68y8yi8u6tyiiytiii6i686i666i",
"586o8856656886866r368688888u6666uu6466tupsisy6iii864a4O8i68iiii8",
"86586o8856656886866r368688u6u6uuuu66i8ii688itti8i66uyy6tiyiy86it",
"o8r868i6668y66i.6p5645866iu66iu6u66u6ty6t68ty8.itpi666+68i688ytt",
"8o668p66i468p88t8p6ir686yiiu6yuuu668i8i6iyiytiituu6u6iityu6y86i6",
"888i6tpr888t666iipp6rurai6yiiii66ip6t8i66yi6t86i66iit6tyyya6y8y6",
"ii66p6i4688u66i66uu6uara6iiytiii6i68ssyyyytyityii66i8ptiyi6i8u6i",
"ua66688668686666ouuu<4+u66i8p88iiy86.888t88t8t66i6yityytyy6iuiy8",
"uu66r668u68i..i8t6au4uuyi68i6688866..8o8oi88t8yu6i68y6a6yiit6ii8",
"66u6r6886ua66iuuuu<6uu46ii6tyiii666t..tt58tt.ii6ytyii666ytiiti8i",
"6ua6r4ou6666644r6668piuyu86y6i666688t86i6syyuuuuyuui6a66i6iitst8",
"=  $= $$&-$;.-=:$::oX=X&X=.&>,;>$;=$ = =$=$ -&-$;.-$  X      XXo",
"ddfgo8..688..o8oo.6+56+86$84Ogd.sgfg* 8:X@XX<1%<2@X@%@+%..34+5+%",
"dd6+444<<<hOO4<4OO<4o54%%=4h+.osstdsg:+X+@%@@@#X##@@@X@X%<4+.+44",
"f66r<4OOO<h<<<4<<O44:r4.o-.O4.tstt.d*f;;%9O<0%=%@==%+X%%X@09+40+",
"g++r34++<<<h<4<4442+25++$8t<%sttdtdsgg  2qwq12@22@@@@=X<2%2:8<<3",
"f8+4<4<<<OOOhh4Oh10%5+r+.tptyyt.s.dgd-;%@%#@#@+1<222XX2@%+0+<0<%",
"f:344+4%<+%63+4:j2$..5++$syitssssdg.g.$X9#@@@@20<XX%X%++<220%%+@",
"f$64r:or++5:X+:=+k+85..4$dytt.ss.ts.d.d:@@@eX2qO@%2=-,X@2%@9+#X@",
"f666X-.jhO4<hOO<O<hk<r%6:gyyysssdst8*.$2@,:>;,; >>X%5X$+%:-+%$%:",
"foo+.$ojOOOhh<<<2<kkh<:5:fyyatssd...f*-7==>>X=X@X%=:@++@%4X<%X+:",
"fo88.$84O+O<4o8684OO$+<%+d8ttttdttddff*-@@@@#@l02@w@@@22@%=X=X2=",
"go468.rOO4OO4<<OO4hh++++4otttsts.sst .$$@q@@@9l222X==@@@2@@X#@2X",
"fo+<02+4hjhh44<O<<<O2+6+3+.ytsytststgd. +O=+@@2@@@e=e>@ee=#=>=%%",
"g+4+X$.jOhhh+44+:hh2$%%55dsssddtssdt.d$+O9910@q2@@@@@=@@@@@%==+4",
"g5++5.oO<hhh2Oh0+OO<%4O24$s.d..s.sddt8<@@@#@@#@2@@@@@@@@@@X@@++0",
"go444:o.5+X8+54:.<jO3j2+<.tsyu6...ddyjh6<++2<2@11+<<20@@=+%+<+%+",
"f:%4<<<Ohh<hO<h<jhhO+r<4<Xg.s.8hzuz4j<j<O<hO22@@w0Ow<022=:@<44@:",
"x.82%:4OO<Ohhhh<hhjh5<+4O:s.sss8+4<+4OO2@@%XX%$dooooo.@2=%2@+<%o",
"f-.%X.:2+O<O24OO02<<X:52<:dd...i.$XX=.++<:<2++<=X$$ir...$* -$o6.",
"ffo+.t6+ddddgdd.d..dds.ddi8.yis..8i8.8ot8645.88.td.+4<..$dddgddg"
};
