/* XPM */
static char *result[] = {
/* columns rows colors chars-per-pixel */
"64 64 38 1 ",
"  c #544C30",
". c #584440",
"X c #504024",
"o c #443418",
"O c #6C5428",
"+ c #686044",
"@ c #786030",
"# c #5C544C",
"$ c #484440",
"% c #947C48",
"& c #806838",
"* c #80786C",
"= c #8C8068",
"- c #7C745C",
"; c #C89C5C",
": c #CCA86C",
"> c #4C5C60",
", c #B4A89C",
"< c #989078",
"1 c #948C7C",
"2 c #C09050",
"3 c #A49C88",
"4 c #887040",
"5 c #647474",
"6 c #945010",
"7 c #C47010",
"8 c #B46810",
"9 c #945C28",
"0 c #B45440",
"q c #D0903C",
"w c #A87034",
"e c #BC8440",
"r c #C47C68",
"t c #8C4000",
"y c #683810",
"u c #683008",
"i c #28200C",
"p c #203800",
/* pixels */
" . X oX XO    +      ++@#@o$XX. X.  . . . X oX XO    +      ++@.",
" +  X oX X.  o+. +X   X % @&$ $ X.  ++  +  X oX X.  o+. +X   X  ",
"X&+.  X X XoX#& %&X+#  *XX &&  $X&+  @+X&+.  X X XoX#& %&X+#  *+",
"=-   +    X  +=--;*=%*=#+ &XXX +@XX@@=:=-   +    X  +=--;*=%*=#:",
"&*--#+ .--X> *=,=;=<*1,, @2%&+#-#<XX#&3&*--#+ .--X> *=,=;=<*1,,3",
"=--.&**--**=##**%1=-1,34++&=%***+--==+==--.&**--**=##**%1=-1,34=",
";*-**=-&#-<=-&.<%<=*%<= **%-+*****=%---;*-**=-&#-<=-&.<%<=*%<= -",
"<***--**<%*=%**5%*-*5*#++& --.  ++-**--<***--**<%*=%**5%*-*5*#+-",
"677678776798960767777qq80877q286776872qq2877w;;e77767772777296O6",
"7e7877867778668877777q20778qe88q27777777777978897w7797;;774e6660",
"w6w677798790997w777777267778q702226772q77q77;07668676797:rq%9969",
"66677898878682227q77779q;9w78867777777772;277799906892%98;;&669w",
"86877986897808787277777;%w896667777777777e777878987987w46&&69666",
"6w66q96869&608677777777e8966787877779727q2778786668877777q2788O9",
"98t88%869868897987776887qe66660876786777e2qe770%997w77777728w666",
"968668820868t68668766677%7887688877877777777707982227q7777990e89",
"66967060777782778888877676787776668877777777778708787277777888t6",
"6866886688777777766007678w66672708787778777272720867777777769w8t",
"w6w677778277;7777777e77q787787ee7768877677777778897987776888899e",
"666666887w777779727q2772777867e7eq87688887780722787777977777822;",
"6766t68668778786777e2qe77777777qeq2886688878797777787277777e7w27",
"q0667667767q778777777777777777;2%727890&9887777777e7779727q270%8",
"77779677777q7887777777787777q727768798w7997779727q27786777e2q0q6",
"8688666887qeq787778777278777;27727887668966086777e2qe777777772;&",
"987989607677768877677776878ee8787q798960767777qq77777676878ee878",
"8677866887777876888877877876978860778668877777q27777878778769788",
"O7790997w77777728q2766786798668867790997w77777728q27667867986688",
"t668682227q7777998778788708887677777069682898886777e2qe778977777",
"t8878087872777778077777277777667879886q;%w987687777777770O77777e",
"t87&608677777777687707727;qq76669799682w9789888777777777769727q2",
"6O8688979877768887876666t66t98826798&&9%&9O%&68777877727266777e2",
"68w68t6866876667698898666699&67686%97qe9686t96887767777772777777",
"OO6t6768877867797867766666t68t29t827%97&7;e08w768888778079ee2296",
"t8w8668668877772778877q28t677e2986779696897w66886688878797877w8&",
"9w&994%%4w&&w972er%&%99&997777777w2w7670t8t67888972q2:&879888894",
"749w&994%%4w&&w972er%&%99777777777%8988799866898777667686869w869",
"9e9w98ww796ww8O7042;49%%87778777277w667679669O8608777%29879&666&",
"&w7907%82w909969078e2976887767777798987868668867777w88667769w879",
"998w60e999677788007e7eq8768888778076987768769w877886w6666q7696w9",
"82707822997778w77777qeq288668887879tt666666866887789068687897788",
"q227992w9%&ww%w&777;2%727890&98869wO9996996&67787686666667878697",
"772e7797798OO8967q727768798w7999w7OO9&9&8996967w87967q7688678897",
"w7%e2&9w7q7787777;27727887668887776OO664966O88w66688777668868982",
"7q2e;O7w22w22;e7%w&0876797678772w9969w87t66777767782q2w87886t692",
"   .   oX XO%OX6O99O42796&9O989OOt86O98yOOtOyOOXOyXXyOyX%w6@%&oo",
"+      XoX X8  +.;%%#*5-*-XXyuyO8OOOOX&;=4&#;;=<::;=:;:%=&@+&@Xo",
"%&X%%-  X X &&&OX -+,3=3=XXuutyO9OttOt&:2%;4::::;:::::;::;&&=&Oi",
"=:=-&+++    =:<=**1=<;:1&XXooyO6OOOtOu+;;;e%::::;:;::;:::;;;;&&o",
"&3&*--#+ .--;;%33*1;**-*%+%&Xty6OOOOO6@;%=:r::;O&;4%&+%4@&&;;;&X",
"+==--.&**--*****=*5*;##*+&&XoXoutOOyOt ;=:2-;::%<4:=:::;:O@4%%4X",
"--;*-**=-&#-****=3*< X . . .  .X6yytttX44&& 1::&%;2%:::::@ +%;%X",
"--<***--**<%#>***=**%#:% @Xu6t6t66t66O%r%%%=:;;;:;;;::::2%=<;%&p",
"++%.-+ --&==##==1<1***3*  OX6ttOt6t666O;%%%%::;::;;;::2::eO&%;&X",
"+->=#*---*=,*=*=<<*#****Xopoyy66y66669X%&;% ::29%9O;;:%:;& @&&&p",
"*<*<-==*-=1:&#&+*#.+..#.&XopOOOytt6q66o&4&44;:;=;;;::::::& O%&&p",
"*=13-*-*==1;-#$. XXX.&X*1 Oo96tyttt666u&%&44;;;:;:::;;:::O +%%wp",
"--;*<==*--==#=-*:31#>***&XOXOt6OttO666y ;O@4%%%%.&%+&4%%e&&e;w p",
"=&*%;-;;=-&+-#+;<=****51# OXOuytttt686t %%4O@ =:&;%r%-%;-;%;;r&o",
"%==;=*33=;;====;,%*#*5-*-XXyuyOtO666606O%e%4&<3::;:::::;;;;;;%&o",
":::=1113;:=;***1=*1,3=3=XXuuty6y66t&;69 %%4=%=;;;;;;:;;;%%;re%%X",
";::==**=<:=;-##*-#-<;:1&XXooyO66t6O;:OX&@;e&;;:;;;;;;:;:::;;e%7o",
"*-*+- X&&&&&**###5***-*%+%&Xty6ttOO%:;.--;4&;;::;;;:::;;;;;;%wOO",
" O@ X OOweOw*#*=;-3;##*+&&XoXoutOyu:29 %&%%4%w@&&&&O@&92O@9&XoOX",
" O@ X OOweOw  OX Xo X . . .  .X .XX$o@#+o+.+@&& &#XOX Xo   .   ."
};
