/* XPM */
static char *result[] = {
/* columns rows colors chars-per-pixel */
"64 64 44 1 ",
"  c #5C544C",
". c #544C30",
"X c #403C30",
"o c #504024",
"O c #342410",
"+ c #342C28",
"@ c #6C5428",
"# c #686044",
"$ c #786030",
"% c #304040",
"& c #484440",
"* c #A87034",
"= c #243434",
"- c #806838",
"; c #647474",
": c #7C745C",
"> c #80786C",
", c #CCA86C",
"< c #8C8068",
"1 c #C89C5C",
"2 c #947C48",
"3 c #A49C88",
"4 c #4C5C60",
"5 c #98807C",
"6 c #B4A89C",
"7 c #989078",
"8 c #948C7C",
"9 c #C09050",
"0 c #C0B4AC",
"q c #887040",
"w c #945010",
"e c #A45C10",
"r c #C47010",
"t c #B46810",
"y c #945C28",
"u c #B45440",
"i c #D0903C",
"p c #BC8440",
"a c #A4945C",
"s c #8C4000",
"d c #683810",
"f c #683008",
"g c #D0B484",
"h c #402004",
/* pixels */
" . .XoOo.+@o.XX#XXXXXX##$ @O%&+%.+ .X X . .XoOo.+@o.XX#XXXXXX##$",
".X#..oXO&.&%XoO# .#XXX.oX*.@=%.%X+ ..##.X#..oXO&.&%XoO# .#XXX.oX",
"#&-# Xoo.o.+O+;-.::&##XX>o+.X-..%&-#..$#&-# Xoo.o.+O+;-.::&##XX>",
",<:...#X...oX.#<::1><2><##.-&++X#@&o@@<,<:...#X...oX.#<::1><2><#",
"3->::;#X%::o4.>56<157>866.@92-#;: 7&o -3->::;#X%::o4.>56<157>866",
"5<::%->>::>><; >>28<:803q##-<2>>>#::<<#5<::%->>::>><; >>28<:803q",
":1>:>><:- :7<:-%727<>27<.>>2:#>>>>><2:::1>:>><:- :7<:-%727<>27<.",
":7>>>::>>72>52>>;2>:>;>;##-.::%..##:>>::7>>>::>>72>52>>;2>:>;>;#",
"wer*e*trrerytywu*errrriitutrri*terretr*ii*t***99p*r*e**r9**r9ye@",
"u*prtrrterrrtwettr*rrri*u*rtiptti9r**rrrr***y*tty****yr99r*qpwww",
"y*w*e***ytryuyyr*rr*r***er*rtiru9**err*irrirr1u*eeterwryr,ai*yyw",
"*ewer*tytt*twt***rirrrryi9y**tterrrr*r*r**9****yyyuety92yt91ywey",
"wtet**ytwty*tut*tr*rrr*r12*tyeeerrrr*rrrr*pr**t*tytryt**qwy-wyww",
"ye*eeiywtwyywute*rrrrr**ptywe*trtr***yr**i**rt*tewettr*rrri*rtt@",
"wytstt*twytwtty*yt**rett*ipweeeutrerter**p*ip**u*yyr*rr*r***t*ww",
"yywtwett9utetseteet*eee*r**ttretttrrtrr****rr*u*yt***rirrrryyupt",
"wwwyeruwu*rrrt9r*tttttrrerw*trrrewettr*r*rrrr**trut*tr*rrr*rttts",
"swtwetteettrrrrrrrweuurert*wee**rut*tr**tr*r*****ute*rrrrr**ey*t",
"p*w*er***t*rr1r*rrrr*pr*i*trrtrppr*ettr*errr**r*tty*yt**rettttyy",
"9wwwewwttr******yr**i**r*rrrte*prpit*etttt**tu****tr*r*y*rrr*t**",
"*e*eeseteetrrtrter**p*iprrrrrr*ripi*ttewttt*t*y*rrr*tr*rrrr*pr**",
"tiuee*werrwrirrtrr****rrrrrrrrr192r**tyuyyttr*rrrr*pr**yr**i**u*",
"e*rrryw**rrrirttr*r*rrrrtrrr*ir9rret*yt**yyr**yr**i**rter**p*iui",
"$twttwwwtt*ipi*tr**tr*r*rtrrr1*rr9*tt*wetyeeuter**p*ip*rr****r91",
"eytrytywu*errrettr*errr*etrtpptrt*irytywu*errrriirrrrreretrtpptr",
"@terrtwettr*rrt*etttt**tr*t*wyrtteurrtwettr*rrri*rrrrtrtr*t*wyrt",
"w@**yuyyr*rr*r***ti*reerterytewtter*yuyyr*rr*r***ti*reerterytewt",
"@swwtwt***rirrrryytrrtrttruttt*err*r*ueyet*tyttter**p*ip**ty*rrr",
"$stt*tut*tr*rrr*rturrrrr*rrrr*ew*t*yttei92*yt*etrr****rr*u@rrrr*",
"@strywute*rrrrr**et*rurr*r9iireewyryyet9*yrtytttr*r*rrrr**wyr**i",
"se@twtty*yt**retttrtrewewswwsytt*e*yt$yy*$y@*ywtr**tr*r***wer**p",
"yet*etseteet*eee*eyttytweewyy$e*wte2y*ipyetesywttr*errr**r*rr***",
"w@@eswrwtt*rterryrterreeeeeswts*yst***y*y*9put**etttt**tu*ypp**y",
"$st*tewtwwtt*rr**r*ttrri*tsw**p*ytwr*yeyetyr*wettewttt*t*y*t***t",
"qy*$yyq**q*yy*y**pa*y*yyyyyr****rr*9**wrustse*ttty*9i9,yt*ytttty",
"y*qy*$yyq**q*yy*y**pa*y*yyr*r*rrrr**tytt*yytwwtyt**ree*wtetey*tw",
"$ypy*yt***ye**t@*uq*9qy**tr**tr*r**r*we*w*ywey@twut***2*yt*yyeww",
"y$**yu**t9*yuyywyu*tp*y*ettr*errr**ytyt*tetewttwrr*r*ttwer*ey*t*",
"yyyt*wupyyyw***ttuu*prpit*etttt**tu*wyt**et*wy*t**ttw*weeei*eye*",
"tt**u*t9*yyr**t**rr*ripi*ttewttt*t*ysseeeewetwett**tyuwtet*tyr*t",
"ri***yy**y*y****$rrr192r**tyuyyttey*@yyywyywyw**t*etweewee*trtey",
"rr**p**yr*yt@@tyw*ir9rret*yt**yyy**@@y$y$tyywyer*t*ye*i*ettw*tty",
"**r*p*yy*ri**trrrr1*rr9*tt*wettt***w@@wwqyww@tt*ewett***ewttwtyt",
"*ri*p9$r*****99p***yutrery*e*t****yywy*t*seerrrrerrt*i**t*ttwswy",
" XX. X..Oo.+@o -.--$# #O# @O%&+%.+ .X X . .XoOo.+@o.XX#XXXXXX##$",
" #XXXX.o+O&.&%.@O###.--.@*.@=%.%X+ ..##.X#..oXO&.&%XoO# .#XXX.oX",
":::&2::XXo.o.+O+;-*y2o..-o+.X-..%&-#..$#&-# Xoo.o.+O+;-.::&##XX>",
"@<,<:$###X...oX.#<2q:X..@#.-&++X#@&o@@<,<:...#X...oX.#<::1><2><#",
" -3->::;#X%::o4.>59-p2: %.@92-#;: 7&o -3->::;#X%::o4.>56<157>866",
"<#5<::%->>::>><; >--::<::##-<2>>>#::<<#5<::%->>::>><; >>28<:803q",
":::1>:>><:- :7<:-%2-.---%>>2:#>>>>><2:::1>:>><:- :7<:-%727<>27<.",
">::7>>>::>>72>52>>$#:#2#>#-.::%..##:>>::7>>>::>>72>52>>;2>:>;>;#",
"###2%:#.::-<<:2@%>d-2$-#2;%:#%..&%% :###2%:#.::-<<:2@%>#>>> -%-@",
"%#:4<;>:::>56<>%>7-#-.%  > %  > %;>%.%#:4<;>:::>56<>%>7-:->>>;;:",
">>7>7:5<>:<8,:>>>:--#->%>:-:> ::>> 4>>>7>7:5<>:<8,:>>>:>:>>>:: <",
"<><83:>:><<89:;:>>#--###> 528>>;>>>>><><83:>:><<89:;:>>>4:>8<<52",
"5::1>7<5>::5<>7s>:---#@#-#7<<3<83<<>:5::1>7<5>::5<>7:>::>:>5<79-",
":<->21:91<:-#$-.$d@dddfX--q-22<13<1>>:<->21:91<:-#$-.$dX:@<<2-$d",
"12<<15>66<11<>>: <:21<:<922<< :1<::<<<>->>>:::>:;2>>>>>>>:>>><<7",
"1g,,588831,<17>:<:99-:>:<7-9--::<::7<<>::<<<--:--7<11<>>: <:21<:",
",1g,<5>>57,517<< ->199>-<<<71<:-<<<:<:<<5558>:::%<1,<17>:<:99-:>",
":>:>#:Xd$$$$$7><;:<><1:$:217<:<: -##y@d-5<5:::-:.27,517<< ->199>",
"-.d@.d.d@*p@*@@ddddd..fddd@o.h.d@.2%..$..<->##::.X$$$$7><;:<><1:",
"-.d@.d.d@*p@*@@ddddd..fddd@o.h.d@.2%..$..<->##::.X$$$$7><;:<><1:"
};
